images_sukapura_svg/cmd/lc_graphicfilterremovenoise.svg

<svg viewBox="0 0 24 24" xmlns="http://www.w3.org/2000/svg" xmlns:xlink="http://www.w3.org/1999/xlink"><linearGradient id="a" gradientUnits="userSpaceOnUse" x1="-21.694915" x2="-14.690557" y1="13.213546" y2="13.213546"><stop offset="0" stop-color="#0040dd"/><stop offset="1" stop-color="#0a84ff"/></linearGradient><path d="m8.5 22.5 7-22" fill="none" stroke="url(#a)" stroke-linecap="round" stroke-linejoin="round"/><g fill="#69696e"><path d="m6 5.5 3-1.5v2l-3 1.5z"/><path d="m10 3.5 3-1.5v2l-3 1.5z"/><path d="m20 2h2v2h-2z"/><path d="m20 12h2v2h-2z"/><path d="m14 12h2v2h-2z"/><path d="m18 20h2v2h-2z"/><path d="m16 6h2v2h-2z"/><path d="m2 3.5 3-1.5v2l-3 1.5z"/><path d="m2 9.5 3-1.5v2l-3 1.5z"/><path d="m8 9.5 3-1.5v2l-3 1.5z"/><path d="m6 13.5 3-1.5v2l-3 1.5z"/><path d="m2 17.5 3-1.5v2l-3 1.5z"/><path d="m5 19.5 3-1.5v2l-3 1.5z"/></g></svg>

<?xml version="1.0" encoding="UTF-8" standalone="no"?>
<svg
   xmlns:dc="http://purl.org/dc/elements/1.1/"
   xmlns:cc="http://creativecommons.org/ns#"
   xmlns:rdf="http://www.w3.org/1999/02/22-rdf-syntax-ns#"
   xmlns:svg="http://www.w3.org/2000/svg"
   xmlns="http://www.w3.org/2000/svg"
   xmlns:xlink="http://www.w3.org/1999/xlink"
   xmlns:sodipodi="http://sodipodi.sourceforge.net/DTD/sodipodi-0.dtd"
   xmlns:inkscape="http://www.inkscape.org/namespaces/inkscape"
   viewBox="0 0 24 24"
   version="1.1"
   id="svg32"
   sodipodi:docname="lc_graphicfilterremovenoise.svg"
   inkscape:export-filename="/home/rizmut/Dokumen/Rizmut/Github/libreoffice-style-sukapura/images_sukapura/cmd/lc_graphicfilterremovenoise.png"
   inkscape:export-xdpi="96"
   inkscape:export-ydpi="96"
   inkscape:version="0.92.3 (unknown)">
  <metadata
     id="metadata38">
    <rdf:RDF>
      <cc:Work
         rdf:about="">
        <dc:format>image/svg+xml</dc:format>
        <dc:type
           rdf:resource="http://purl.org/dc/dcmitype/StillImage" />
        <dc:title></dc:title>
      </cc:Work>
    </rdf:RDF>
  </metadata>
  <defs
     id="defs36">
    <linearGradient
       gradientTransform="translate(-29.694915,1.220339)"
       id="a-6"
       gradientUnits="userSpaceOnUse"
       x1="14"
       x2="13.79661"
       y1="22"
       y2="2.1355929">
      <stop
         offset="0"
         stop-color="#0040dd"
         id="stop2" />
      <stop
         offset="1"
         stop-color="#0a84ff"
         id="stop4" />
    </linearGradient>
    <linearGradient
       inkscape:collect="always"
       xlink:href="#a-6"
       id="linearGradient867"
       x1="8"
       y1="11.993207"
       x2="15.004358"
       y2="11.993207"
       gradientUnits="userSpaceOnUse" />
  </defs>
  <sodipodi:namedview
     pagecolor="#ffffff"
     bordercolor="#666666"
     borderopacity="1"
     objecttolerance="10"
     gridtolerance="10"
     guidetolerance="10"
     inkscape:pageopacity="0"
     inkscape:pageshadow="2"
     inkscape:window-width="1366"
     inkscape:window-height="706"
     id="namedview34"
     showgrid="true"
     inkscape:zoom="9.8333333"
     inkscape:cx="-13.261479"
     inkscape:cy="12.8487"
     inkscape:window-x="0"
     inkscape:window-y="0"
     inkscape:window-maximized="1"
     inkscape:current-layer="svg32">
    <inkscape:grid
       type="xygrid"
       id="grid845"
       spacingx="0.5"
       spacingy="0.5"
       empspacing="2" />
  </sodipodi:namedview>
  <path
     d="m 8.5,22.5 7,-22"
     id="path6"
     style="fill:none;stroke:url(#linearGradient867);stroke-linecap:round;stroke-linejoin:round"
     inkscape:connector-curvature="0"
     sodipodi:nodetypes="cc" />
  <g
     fill="#808080"
     id="g30">
    <path
       sodipodi:nodetypes="ccccc"
       inkscape:connector-curvature="0"
       id="path869"
       d="M 6,5.5 9,4 V 6 L 6,7.5 Z"
       style="fill:#69696e;fill-opacity:1" />
    <path
       d="M 10,3.5 13,2 v 2 l -3,1.5 z"
       id="path18"
       inkscape:connector-curvature="0"
       sodipodi:nodetypes="ccccc"
       style="fill:#69696e;fill-opacity:1" />
    <path
       d="m20 2h2v2h-2z"
       id="path20"
       style="fill:#69696e;fill-opacity:1" />
    <path
       d="m20 12h2v2h-2z"
       id="path22"
       style="fill:#69696e;fill-opacity:1" />
    <path
       d="m14 12h2v2h-2z"
       id="path24"
       style="fill:#69696e;fill-opacity:1" />
    <path
       d="m18 20h2v2h-2z"
       id="path26"
       style="fill:#69696e;fill-opacity:1" />
    <path
       d="m16 6h2v2h-2z"
       id="path28"
       style="fill:#69696e;fill-opacity:1" />
    <path
       d="M 2,3.5 5,2 V 4 L 2,5.5 Z"
       id="path871"
       inkscape:connector-curvature="0"
       sodipodi:nodetypes="ccccc"
       style="fill:#69696e;fill-opacity:1" />
    <path
       sodipodi:nodetypes="ccccc"
       inkscape:connector-curvature="0"
       id="path873"
       d="M 2,9.5 5,8 v 2 l -3,1.5 z"
       style="fill:#69696e;fill-opacity:1" />
    <path
       d="M 8,9.5 11,8 v 2 l -3,1.5 z"
       id="path875"
       inkscape:connector-curvature="0"
       sodipodi:nodetypes="ccccc"
       style="fill:#69696e;fill-opacity:1" />
    <path
       sodipodi:nodetypes="ccccc"
       inkscape:connector-curvature="0"
       id="path877"
       d="M 6,13.5 9,12 v 2 l -3,1.5 z"
       style="fill:#69696e;fill-opacity:1" />
    <path
       d="M 2,17.5 5,16 v 2 l -3,1.5 z"
       id="path879"
       inkscape:connector-curvature="0"
       sodipodi:nodetypes="ccccc"
       style="fill:#69696e;fill-opacity:1" />
    <path
       sodipodi:nodetypes="ccccc"
       inkscape:connector-curvature="0"
       id="path883"
       d="M 5,19.5 8,18 v 2 l -3,1.5 z"
       style="fill:#69696e;fill-opacity:1" />
  </g>
</svg>
